app/images/svg/award.svg

<svg width="79" height="81" viewBox="0 0 79 81" fill="none" xmlns="http://www.w3.org/2000/svg">
<path d="M64.7279 39.7092C55.9764 44.8412 44.1945 41.7251 38.2595 33.0321C38.1652 33.1465 38.0646 33.2483 37.9829 33.3564C36.3203 35.713 34.1858 37.6891 31.7182 39.1562C29.2507 40.6233 26.5054 41.5484 23.661 41.8714C18.5232 42.5672 13.3131 41.3085 9.04063 38.3393C4.76822 35.3702 1.73796 30.9022 0.537353 25.8016C-0.204095 22.5658 -0.177902 19.1983 0.613791 15.9746C1.40549 12.7509 2.9402 9.76252 5.09247 7.25368C7.24473 4.74488 9.95341 2.78689 12.9972 1.53981C16.0409 0.29273 19.3331 -0.208042 22.6048 0.0784336C26.1287 0.296591 29.5373 1.43123 32.5006 3.37252C34.605 4.7704 36.4465 6.53617 37.9389 8.5871C38.0332 8.72066 38.1338 8.84782 38.2218 8.9559C39.0391 8.04657 39.7999 7.11177 40.6486 6.26599C43.6077 3.28514 47.4076 1.30557 51.5251 0.599897C56.7054 -0.388535 62.0642 0.448628 66.7084 2.97188C72.002 5.85898 75.1707 10.4122 76.4595 16.3263C77.2956 19.8005 77.2328 23.4339 76.2772 26.8763C75.6579 29.0663 74.701 31.1437 73.4418 33.0321C73.3357 33.1493 73.2769 33.3024 73.2769 33.4613C73.2769 33.6202 73.3357 33.7734 73.4418 33.8906C75.1329 36.2435 76.799 38.6091 78.4714 40.9684L78.7732 41.4326C78.5594 41.4326 78.4022 41.4644 78.2514 41.4644C74.3219 41.4644 70.3988 41.4644 66.4694 41.4644C66.3251 41.4775 66.1801 41.45 66.0502 41.3849C65.9205 41.3198 65.811 41.2197 65.7339 41.0956C65.4321 40.625 65.08 40.1862 64.7279 39.7092ZM35.2606 14.9082H34.7074C32.7835 14.9082 30.866 14.9082 28.9422 14.9082C28.7738 14.92 28.6051 14.8923 28.4492 14.8272C28.2932 14.7622 28.1542 14.6614 28.0431 14.533C25.5849 11.9003 22.5168 11.1372 19.0903 11.7222C17.8791 11.9451 16.7232 12.4072 15.6885 13.0819C14.6538 13.7568 13.7607 14.6311 13.0601 15.6551C12.3596 16.6791 11.8652 17.8326 11.6054 19.0498C11.3457 20.267 11.3254 21.5241 11.5459 22.7492C12.9479 29.8969 21.8315 32.9812 27.2635 28.2117C27.4396 28.0592 27.5904 27.8683 27.8482 27.5759H22.6048V17.7063H30.495C31.7525 17.7063 33.0098 17.7063 34.2673 17.7063C34.4119 17.7063 34.6444 17.5982 34.676 17.5028C34.8708 16.6442 35.0531 15.7858 35.2543 14.8892L35.2606 14.9082ZM51.3114 22.5393C51.4497 22.5393 51.4937 22.5075 51.5441 22.5075C55.6809 22.5075 59.8177 22.5075 63.9546 22.5075C64.1547 22.5285 64.3392 22.6264 64.4701 22.781C64.7782 23.1371 65.036 23.5313 65.344 23.951C65.7729 22.6759 65.8554 21.3076 65.5829 19.9893C65.2751 18.5638 64.6788 17.2182 63.8316 16.0372C62.9843 14.8563 61.9046 13.8657 60.6602 13.1276C59.236 12.2135 57.5985 11.6956 55.9131 11.6263C54.2277 11.5569 52.554 11.9386 51.0611 12.7326C49.5681 13.5267 48.3087 14.7051 47.4099 16.149C46.5112 17.5928 46.005 19.2508 45.9423 20.9558C45.9103 23.0988 46.6112 25.187 47.9264 26.8674C49.2416 28.5476 51.0904 29.7167 53.1598 30.1767C54.2764 30.422 55.4319 30.422 56.5485 30.1767L51.3114 22.5393Z" fill="#DE968A"/>
<path d="M12.8478 46.7454H16.7931V36.1239H21.0637V32.717H8.57715V36.1239H12.8478V46.7454Z" fill="#666666"/>
<path d="M21.8564 46.7452H25.7204V43.3784C25.7204 40.8733 26.8592 39.7311 28.8725 39.7311H29.1979V35.7229C27.3676 35.6428 26.3508 36.6047 25.7204 38.0877V35.9033H21.8564V46.7452Z" fill="#666666"/>
<path d="M33.1905 46.9859C34.6343 46.9859 35.6715 46.4448 36.4239 45.6231V46.7454H40.2472V40.5128C40.2472 38.9897 39.9015 37.8675 39.0677 37.0658C38.1932 36.2041 36.851 35.7432 34.8784 35.7432C32.9871 35.7432 31.6652 36.0839 30.4247 36.5849L31.2178 39.2703C32.194 38.8895 33.0888 38.669 34.2479 38.669C35.7325 38.669 36.4443 39.3104 36.4443 40.4326V40.613C35.8139 40.3926 34.8174 40.1922 33.8006 40.1922C31.2178 40.1922 29.4893 41.3545 29.4893 43.5991C29.4893 45.8035 31.0958 46.9859 33.1905 46.9859ZM34.5733 44.6011C33.7802 44.6011 33.2108 44.1602 33.2108 43.4187C33.2108 42.5769 33.8616 42.0359 34.9801 42.0359C35.5495 42.0359 36.0985 42.1561 36.485 42.3165V42.8175C36.485 43.8997 35.6919 44.6011 34.5733 44.6011Z" fill="#666666"/>
<path d="M45.2159 46.8254H48.7341L53.1267 35.9033H49.1205L47.0055 42.2362L44.8905 35.9033H40.8232L45.2159 46.8254Z" fill="#666666"/>
<path d="M59.1613 47.0058C61.3576 47.0058 62.8828 46.124 63.9403 44.8013L61.805 43.0578C61.0119 43.8193 60.2797 44.16 59.3646 44.16C58.1648 44.16 57.2903 43.5588 56.9852 42.3764H64.347C64.3674 42.1158 64.3674 41.8353 64.3674 41.5948C64.3674 38.4084 62.6184 35.6628 58.8155 35.6628C55.5617 35.6628 53.2637 38.1679 53.2637 41.3343C53.2637 44.7412 55.704 47.0058 59.1613 47.0058ZM56.9242 40.4325C57.1276 39.25 57.819 38.4685 58.8359 38.4685C59.8934 38.4685 60.6051 39.23 60.7475 40.4325H56.9242Z" fill="#666666"/>
<path d="M66.1055 46.7453H69.9694V32.1157H66.1055V46.7453Z" fill="#666666"/>
<path d="M1.26074 65.8801H5.40937L6.42619 63.375H11.917L12.9542 65.8801H17.1841L11.1239 51.7515H7.32099L1.26074 65.8801ZM7.58536 60.3489L9.19193 56.3608L10.7781 60.3489H7.58536Z" fill="#666666"/>
<path d="M19.792 65.9602H23.1068L24.9371 60.3289L26.7267 65.9602H30.0618L33.4581 55.0381H29.7365L28.2519 60.5293L26.5436 54.998H23.3509L21.663 60.4892L20.219 55.0381H16.4365L19.792 65.9602Z" fill="#666666"/>
<path d="M37.3809 66.1206C38.8249 66.1206 39.8619 65.5796 40.6145 64.7579V65.8802H44.4376V59.6476C44.4376 58.1245 44.092 57.0022 43.2582 56.2006C42.3837 55.3389 41.0415 54.8779 39.0688 54.8779C37.1775 54.8779 35.8557 55.2186 34.6152 55.7197L35.4083 58.4051C36.3844 58.0243 37.2792 57.8039 38.4384 57.8039C39.923 57.8039 40.6348 58.4451 40.6348 59.5674V59.7478C40.0043 59.5273 39.0078 59.3269 37.991 59.3269C35.4083 59.3269 33.6797 60.4893 33.6797 62.7338C33.6797 64.9383 35.2862 66.1206 37.3809 66.1206ZM38.7638 63.7359C37.9706 63.7359 37.4013 63.2949 37.4013 62.5534C37.4013 61.7118 38.052 61.1707 39.1705 61.1707C39.7399 61.1707 40.289 61.2909 40.6754 61.4513V61.9523C40.6754 63.0345 39.8823 63.7359 38.7638 63.7359Z" fill="#666666"/>
<path d="M46.4033 65.8802H50.2673V62.5134C50.2673 60.0084 51.4061 58.866 53.4194 58.866H53.7448V54.8579C51.9145 54.7777 50.8977 55.7397 50.2673 57.2227V55.0382H46.4033V65.8802Z" fill="#666666"/>
<path d="M59.3564 66.1206C61.0037 66.1206 61.9595 65.339 62.7119 64.4372V65.8801H66.5759V51.2505H62.7119V56.3608C61.9798 55.5392 61.0037 54.7977 59.3361 54.7977C56.7331 54.7977 54.4961 56.942 54.4961 60.4691C54.4961 63.9763 56.7534 66.1206 59.3564 66.1206ZM60.536 62.9341C59.2954 62.9341 58.2786 61.9121 58.2786 60.4691C58.2786 58.9862 59.2954 57.9841 60.536 57.9841C61.7764 57.9841 62.7729 59.0062 62.7729 60.4291C62.7729 61.9121 61.7764 62.9341 60.536 62.9341Z" fill="#666666"/>
<path d="M73.0186 66.1207C75.703 66.1207 77.5129 64.8782 77.5129 62.4935C77.5129 60.3491 75.7844 59.6277 73.6083 59.0064C72.4492 58.6657 71.8187 58.4653 71.8187 58.0445C71.8187 57.7037 72.1238 57.4833 72.7135 57.4833C73.588 57.4833 74.8285 57.8641 75.9674 58.4853L77.2892 56.0805C76.0284 55.2788 74.3608 54.8179 72.7542 54.8179C70.2122 54.8179 68.3412 56.1005 68.3412 58.4052C68.3412 60.6297 70.0698 61.3311 72.2458 61.9123C73.4049 62.2129 74.0151 62.4133 74.0151 62.8342C74.0151 63.255 73.71 63.4554 73.0389 63.4554C71.9001 63.4554 70.5172 63.0346 69.2563 62.2129L67.8125 64.5175C69.3377 65.5997 71.168 66.1207 73.0186 66.1207Z" fill="#666666"/>
<path d="M27.2266 77.625H32.8137V76.0253H29.8991L31.1093 75.1748C32.1683 74.4255 32.7431 73.8281 32.7431 72.6941C32.7431 71.3374 31.6842 70.416 30.1412 70.416C28.7696 70.416 28.0233 70.9526 27.2669 71.9348L28.5881 73.0384C29.1427 72.4005 29.5159 72.1271 29.9899 72.1271C30.4639 72.1271 30.7765 72.4005 30.7765 72.846C30.7765 73.2713 30.5345 73.6155 29.8689 74.1218L27.2266 76.1468V77.625Z" fill="#666666"/>
<path d="M36.8581 77.7668C38.8751 77.7668 40.1357 76.086 40.1357 74.0813C40.1357 72.0563 38.8852 70.3958 36.8782 70.3958C34.8713 70.3958 33.6006 72.0765 33.6006 74.0813C33.6006 76.1063 34.8411 77.7668 36.8581 77.7668ZM36.8782 76.0252C36.0916 76.0252 35.5672 75.2153 35.5672 74.0813C35.5672 72.927 36.0815 72.1373 36.8581 72.1373C37.6346 72.1373 38.1691 72.9574 38.1691 74.0813C38.1691 75.2254 37.6649 76.0252 36.8782 76.0252Z" fill="#666666"/>
<path d="M40.7881 77.625H46.3752V76.0253H43.4606L44.6709 75.1748C45.7298 74.4255 46.3046 73.8281 46.3046 72.6941C46.3046 71.3374 45.2457 70.416 43.7027 70.416C42.3311 70.416 41.5848 70.9526 40.8284 71.9348L42.1496 73.0384C42.7043 72.4005 43.0774 72.1271 43.5514 72.1271C44.0254 72.1271 44.338 72.4005 44.338 72.846C44.338 73.2713 44.096 73.6155 43.4304 74.1218L40.7881 76.1468V77.625Z" fill="#666666"/>
<path d="M48.3923 77.6249H50.3185V70.4868H48.8965L46.8291 71.0741L47.2023 72.5928L48.3923 72.3194V77.6249Z" fill="#666666"/>
<path fill-rule="evenodd" clip-rule="evenodd" d="M23.5321 74.25H6.72363V73.4062H23.5321V74.25Z" fill="#666666"/>
<path fill-rule="evenodd" clip-rule="evenodd" d="M71.4364 74.25H54.6279V73.4062H71.4364V74.25Z" fill="#666666"/>
</svg>

<svg width="79" height="81" viewBox="0 0 79 81" fill="none" xmlns="http://www.w3.org/2000/svg"><path d="M64.728 39.71c-8.752 5.131-20.533 2.015-26.468-6.678-.095.115-.195.216-.277.324a20.477 20.477 0 01-6.265 5.8 20.23 20.23 0 01-8.057 2.715 20.732 20.732 0 01-14.62-3.532A21.163 21.163 0 01.537 25.802a21.284 21.284 0 01.077-9.827 21.134 21.134 0 014.478-8.721 20.817 20.817 0 017.905-5.714A20.595 20.595 0 0122.605.078 20.35 20.35 0 0132.5 3.373a21.312 21.312 0 015.438 5.214c.094.134.195.26.283.369.817-.91 1.578-1.844 2.427-2.69A20.116 20.116 0 0151.525.6a22.826 22.826 0 0115.183 2.372c5.294 2.887 8.463 7.44 9.752 13.354a21.046 21.046 0 01-.183 10.55 21.777 21.777 0 01-2.835 6.156.64.64 0 000 .859c1.69 2.352 3.357 4.718 5.03 7.077l.301.465c-.214 0-.37.031-.522.031H66.47a.778.778 0 01-.735-.368c-.302-.471-.654-.91-1.006-1.387zM35.26 14.907h-6.319a1.083 1.083 0 01-.899-.375c-2.458-2.633-5.526-3.396-8.953-2.81a9.314 9.314 0 00-3.402 1.359 9.424 9.424 0 00-2.628 2.573 9.54 9.54 0 00-1.455 3.395 9.591 9.591 0 00-.06 3.7c1.403 7.147 10.286 10.231 15.719 5.462.176-.153.326-.344.584-.636h-5.243v-9.87h11.663c.145 0 .377-.108.409-.203.195-.859.377-1.717.578-2.614l.007.02zm16.05 7.631c.139 0 .183-.032.233-.032h12.41c.2.021.385.12.516.274.308.356.566.75.874 1.17a7.604 7.604 0 00.239-3.962 10.629 10.629 0 00-1.751-3.952 10.493 10.493 0 00-3.172-2.91 9.498 9.498 0 00-9.6-.395 9.631 9.631 0 00-3.65 3.417 9.778 9.778 0 00-1.468 4.807 9.367 9.367 0 001.984 5.911 9.179 9.179 0 005.234 3.31 7.894 7.894 0 003.389 0l-5.238-7.638z" fill="#DE968A"/><path d="M12.848 46.745h3.945V36.124h4.27v-3.407H8.578v3.407h4.27v10.621zm9.008 0h3.864v-3.367c0-2.505 1.14-3.647 3.152-3.647h.326v-4.008c-1.83-.08-2.847.882-3.478 2.365v-2.185h-3.864v10.842zm11.334.241c1.444 0 2.482-.541 3.234-1.363v1.122h3.823v-6.232c0-1.523-.346-2.645-1.18-3.447-.874-.862-2.216-1.323-4.189-1.323-1.89 0-3.213.34-4.453.842l.793 2.685c.976-.38 1.87-.601 3.03-.601 1.485 0 2.196.641 2.196 1.764v.18c-.63-.22-1.627-.42-2.643-.42-2.583 0-4.312 1.162-4.312 3.406 0 2.205 1.607 3.387 3.701 3.387zm1.383-2.385c-.793 0-1.362-.44-1.362-1.182 0-.842.65-1.383 1.77-1.383a4.1 4.1 0 011.504.28v.502c0 1.082-.793 1.783-1.912 1.783zm10.643 2.224h3.518l4.393-10.922H49.12l-2.114 6.333-2.115-6.333h-4.068l4.393 10.922zm13.945.181c2.197 0 3.722-.882 4.78-2.205l-2.136-1.743c-.793.761-1.525 1.102-2.44 1.102-1.2 0-2.075-.601-2.38-1.784h7.362c.02-.26.02-.54.02-.781 0-3.187-1.749-5.932-5.552-5.932-3.253 0-5.551 2.505-5.551 5.671 0 3.407 2.44 5.672 5.897 5.672zm-2.237-6.574c.204-1.182.895-1.964 1.912-1.964 1.057 0 1.77.762 1.912 1.964h-3.824zm9.182 6.313h3.863v-14.63h-3.863v14.63zM1.26 65.88h4.15l1.016-2.505h5.491l1.037 2.505h4.23l-6.06-14.128H7.32L1.261 65.88zm6.325-5.531l1.607-3.988 1.586 3.988H7.585zm12.207 5.611h3.315l1.83-5.631 1.79 5.631h3.335l3.396-10.922h-3.721l-1.485 5.491-1.708-5.531H23.35l-1.688 5.491-1.444-5.45h-3.783l3.356 10.921zm17.588.16c1.445 0 2.482-.54 3.234-1.362v1.122h3.824v-6.232c0-1.524-.346-2.646-1.18-3.447-.874-.862-2.217-1.323-4.19-1.323-1.89 0-3.212.34-4.453.842l.793 2.685c.976-.38 1.871-.601 3.03-.601 1.485 0 2.197.641 2.197 1.763v.18c-.63-.22-1.627-.42-2.644-.42-2.583 0-4.311 1.162-4.311 3.407 0 2.204 1.606 3.387 3.7 3.387zm1.384-2.384c-.793 0-1.363-.441-1.363-1.183 0-.841.651-1.382 1.77-1.382.569 0 1.118.12 1.504.28v.501c0 1.083-.793 1.784-1.911 1.784zm7.639 2.144h3.864v-3.367c0-2.505 1.14-3.647 3.152-3.647h.326v-4.008c-1.83-.08-2.847.882-3.478 2.365v-2.185h-3.864V65.88zm12.953.24c1.648 0 2.603-.781 3.356-1.683v1.443h3.864V51.25h-3.864v5.11c-.732-.82-1.708-1.562-3.376-1.562-2.603 0-4.84 2.144-4.84 5.671 0 3.507 2.257 5.652 4.86 5.652zm1.18-3.186c-1.24 0-2.257-1.022-2.257-2.465 0-1.483 1.016-2.485 2.257-2.485 1.24 0 2.237 1.022 2.237 2.445 0 1.483-.997 2.505-2.237 2.505zm12.483 3.186c2.684 0 4.494-1.242 4.494-3.627 0-2.144-1.729-2.865-3.905-3.487-1.159-.34-1.79-.54-1.79-.962 0-.34.306-.56.895-.56.875 0 2.116.38 3.254 1.001l1.322-2.404c-1.26-.802-2.928-1.263-4.535-1.263-2.542 0-4.413 1.282-4.413 3.587 0 2.225 1.729 2.926 3.905 3.507 1.159.3 1.77.501 1.77.922 0 .421-.306.621-.977.621-1.139 0-2.522-.42-3.783-1.242l-1.444 2.304c1.526 1.083 3.356 1.604 5.207 1.604zM27.227 77.625h5.587v-1.6h-2.915l1.21-.85c1.06-.75 1.634-1.347 1.634-2.48 0-1.358-1.059-2.279-2.602-2.279-1.371 0-2.118.537-2.874 1.519l1.321 1.103c.555-.638.928-.91 1.402-.91.474 0 .787.272.787.718 0 .425-.242.77-.908 1.276l-2.642 2.025v1.478zm9.631.142c2.017 0 3.278-1.681 3.278-3.686 0-2.025-1.25-3.685-3.258-3.685-2.007 0-3.277 1.68-3.277 3.685 0 2.025 1.24 3.686 3.257 3.686zm.02-1.742c-.786 0-1.31-.81-1.31-1.944 0-1.154.514-1.944 1.29-1.944.777 0 1.311.82 1.311 1.944 0 1.144-.504 1.944-1.29 1.944zm3.91 1.6h5.587v-1.6h-2.914l1.21-.85c1.059-.75 1.634-1.347 1.634-2.48 0-1.358-1.06-2.279-2.602-2.279-1.372 0-2.118.537-2.875 1.519l1.322 1.103c.554-.638.927-.91 1.401-.91s.787.272.787.718c0 .425-.242.77-.908 1.276l-2.642 2.025v1.478zm7.604 0h1.926v-7.138h-1.421l-2.068.587.373 1.519 1.19-.274v5.306z" fill="#666"/><path fill-rule="evenodd" clip-rule="evenodd" d="M23.532 74.25H6.724v-.844h16.808v.844zm47.904 0H54.628v-.844h16.808v.844z" fill="#666"/></svg>
